svg/Info.svg

<svg width="16" height="16" xmlns="http://www.w3.org/2000/svg" xmlns:xlink="http://www.w3.org/1999/xlink"><defs><path d="M9.619 12.006H6.38c-.213 0-.385-.201-.385-.448s.172-.448.385-.448L7 11V8l-.62-.116c-.213 0-.385-.201-.385-.448s.172-.448.385-.448h2.514c.077 0 .102-.032.113-.058C9.004 6.945 9 6.959 9 7v4l.619.11c.213 0 .386.201.386.448s-.173.448-.386.448zM7 4h.98c.007 0 .013-.004.02-.004.007 0 .013.004.02.004H9v.94c.001.022.012.04.012.061 0 .022-.011.04-.012.061V6h-.967c-.012.001-.022.007-.033.007-.012 0-.022-.006-.033-.007H7v-.939c-.002-.021-.013-.038-.013-.06 0-.021.011-.039.013-.06V4zm1-4a8 8 0 0 0-8 8 8 8 0 1 0 16 0 8 8 0 0 0-8-8z" id="a"/></defs><g fill="none" fill-rule="evenodd"><mask id="b" fill="#fff"><use xlink:href="#a"/></mask><g mask="url(#b)" fill="#FF6B47"><path d="M0 0H16V16H0z"/></g></g></svg>

<?xml version="1.0" encoding="UTF-8"?>
<svg width="216px" height="216px" viewBox="0 0 216 216" version="1.1" xmlns="http://www.w3.org/2000/svg" xmlns:xlink="http://www.w3.org/1999/xlink">
    <!-- Generator: Sketch 52.1 (67048) - http://www.bohemiancoding.com/sketch -->
    <title>Icon/Info</title>
    <desc>Created with Sketch.</desc>
    <defs>
        <path d="M9.619,12.006 L6.38,12.006 C6.167,12.006 5.995,11.805 5.995,11.558 C5.995,11.311 6.167,11.11 6.38,11.11 L7,11 L7,8 L6.38,7.884 C6.167,7.884 5.995,7.683 5.995,7.436 C5.995,7.189 6.167,6.988 6.38,6.988 L8.894,6.988 C8.971,6.988 8.996,6.956 9.007,6.93 C9.004,6.945 9,6.959 9,7 L9,11 L9.619,11.11 C9.832,11.11 10.005,11.311 10.005,11.558 C10.005,11.805 9.832,12.006 9.619,12.006 L9.619,12.006 Z M7,4 L7.98,4 C7.987,4 7.993,3.996 8,3.996 C8.007,3.996 8.013,4 8.02,4 L9,4 L9,4.94 C9.001,4.962 9.012,4.98 9.012,5.001 C9.012,5.023 9.001,5.041 9,5.062 L9,6 L8.033,6 C8.021,6.001 8.011,6.007 8,6.007 C7.988,6.007 7.978,6.001 7.967,6 L7,6 L7,5.061 C6.998,5.04 6.987,5.023 6.987,5.001 C6.987,4.98 6.998,4.962 7,4.941 L7,4 Z M8,0 C3.581,0 0,3.582 0,8 C0,12.418 3.581,16 8,16 C12.418,16 16,12.418 16,8 C16,3.582 12.418,0 8,0 L8,0 Z" id="path-1"></path>
    </defs>
    <g id="WEB" stroke="none" stroke-width="1" fill="none" fill-rule="evenodd">
        <g id="Registro/Menor_de_14-1440" transform="translate(-619.000000, -1147.000000)">
            <rect fill="#FFFFFF" x="0" y="0" width="1440" height="2412"></rect>
            <g id="CONTENT" transform="translate(-40.000000, 523.000000)">
                <g id="Form" transform="translate(333.000000, 30.000000)">
                    <g id="CONTRASEÑA" transform="translate(42.000000, 560.000000)">
                        <g id="Tooltip---On" transform="translate(255.000000, 0.000000)">
                            <g id="Icon/Info" transform="translate(129.000000, 134.000000)">
                                <mask id="mask-2" fill="white">
                                    <use xlink:href="#path-1"></use>
                                </mask>
                                <g id="Info-Icon"></g>
                                <g id="UI/Color/Flat/Orange" mask="url(#mask-2)" fill="#FF6B47" fill-rule="evenodd">
                                    <rect id="Base" x="0" y="0" width="16" height="16"></rect>
                                </g>
                            </g>
                        </g>
                    </g>
                </g>
            </g>
        </g>
    </g>
</svg>
